backend/papyrus-web-graphics/src/main/resources/icons-override/full/obj16/ComponentRealization.svg

<?xml version="1.0" encoding="UTF-8" standalone="no"?>
<svg
   xmlns:dc="http://purl.org/dc/elements/1.1/"
   xmlns:cc="http://creativecommons.org/ns#"
   xmlns:rdf="http://www.w3.org/1999/02/22-rdf-syntax-ns#"
   xmlns:svg="http://www.w3.org/2000/svg"
   xmlns="http://www.w3.org/2000/svg"
   xmlns:xlink="http://www.w3.org/1999/xlink"
   xmlns:sodipodi="http://sodipodi.sourceforge.net/DTD/sodipodi-0.dtd"
   xmlns:inkscape="http://www.inkscape.org/namespaces/inkscape"
   width="18"
   height="16"
   viewBox="0 0 4.7624999 4.2333332"
   version="1.1"
   id="svg8"
   inkscape:version="1.0.1 (3bc2e813f5, 2020-09-07)"
   sodipodi:docname="ComponentRealization.svg">
  <defs
     id="defs2">
    <linearGradient
       inkscape:collect="always"
       id="linearGradient939">
      <stop
         style="stop-color:#5d9bd4;stop-opacity:1"
         offset="0"
         id="stop935" />
      <stop
         style="stop-color:#fdfeff;stop-opacity:1"
         offset="1"
         id="stop937" />
    </linearGradient>
    <linearGradient
       inkscape:collect="always"
       id="linearGradient872">
      <stop
         style="stop-color:#cae2f9;stop-opacity:1;"
         offset="0"
         id="stop868" />
      <stop
         style="stop-color:#fdfeff;stop-opacity:1"
         offset="1"
         id="stop870" />
    </linearGradient>
    <linearGradient
       inkscape:collect="always"
       xlink:href="#linearGradient872"
       id="linearGradient874"
       x1="144.28606"
       y1="144.28606"
       x2="23.45978"
       y2="3.8806121"
       gradientUnits="userSpaceOnUse"
       gradientTransform="matrix(0.03482146,0,0,0.02814913,1.1883999,0.89374863)" />
    <linearGradient
       inkscape:collect="always"
       xlink:href="#linearGradient939"
       id="linearGradient874-3-9"
       x1="144.28606"
       y1="144.28606"
       x2="23.45978"
       y2="3.8806121"
       gradientUnits="userSpaceOnUse"
       gradientTransform="matrix(0.02033429,0,0,0.00562037,0.17274477,1.6769593)" />
    <linearGradient
       inkscape:collect="always"
       xlink:href="#linearGradient939"
       id="linearGradient874-3-9-0"
       x1="144.28606"
       y1="144.28606"
       x2="23.45978"
       y2="3.8806121"
       gradientUnits="userSpaceOnUse"
       gradientTransform="matrix(0.02033429,0,0,0.00562037,0.17808841,3.1780907)" />
  </defs>
  <sodipodi:namedview
     id="base"
     pagecolor="#ffffff"
     bordercolor="#666666"
     borderopacity="1.0"
     inkscape:pageopacity="0"
     inkscape:pageshadow="2"
     inkscape:zoom="43.542474"
     inkscape:cx="6.5118477"
     inkscape:cy="11.478083"
     inkscape:document-units="mm"
     inkscape:current-layer="g882"
     inkscape:document-rotation="0"
     showgrid="false"
     inkscape:pagecheckerboard="false"
     inkscape:window-width="3840"
     inkscape:window-height="2107"
     inkscape:window-x="0"
     inkscape:window-y="0"
     inkscape:window-maximized="1"
     units="px"
     inkscape:snap-global="false" />
  
  <g>
    <g
       id="g882">
      <g
         id="g866"
         transform="matrix(0.68468507,0,0,0.68468507,0.29445868,0.27519272)">
        <g
           id="g852"
           transform="matrix(0.45516967,0,0,0.61246917,-0.22825031,-0.47960105)">
          <g
             id="g965">
            <path
               style="color:#000000;font-style:normal;font-variant:normal;font-weight:normal;font-stretch:normal;font-size:medium;line-height:normal;font-family:sans-serif;font-variant-ligatures:normal;font-variant-position:normal;font-variant-caps:normal;font-variant-numeric:normal;font-variant-alternates:normal;font-variant-east-asian:normal;font-feature-settings:normal;font-variation-settings:normal;text-indent:0;text-align:start;text-decoration:none;text-decoration-line:none;text-decoration-style:solid;text-decoration-color:#000000;letter-spacing:normal;word-spacing:normal;text-transform:none;writing-mode:lr-tb;direction:ltr;text-orientation:mixed;dominant-baseline:auto;baseline-shift:baseline;text-anchor:start;white-space:normal;shape-padding:0;shape-margin:0;inline-size:0;clip-rule:nonzero;display:inline;overflow:visible;visibility:visible;isolation:auto;mix-blend-mode:normal;color-interpolation:sRGB;color-interpolation-filters:linearRGB;solid-color:#000000;solid-opacity:1;vector-effect:none;fill:url(#linearGradient874);fill-opacity:1;fill-rule:nonzero;stroke:none;stroke-width:0.258315;stroke-linecap:butt;stroke-linejoin:bevel;stroke-miterlimit:4;stroke-dasharray:none;stroke-dashoffset:0;stroke-opacity:1;color-rendering:auto;image-rendering:auto;shape-rendering:auto;text-rendering:auto;enable-background:accumulate;stop-color:#000000;stop-opacity:1"
               d="M 2.0053036,1.0029846 H 6.212651 V 4.955277 H 2.0053036 Z"
               id="path967" />
            <path
               style="color:#000000;font-style:normal;font-variant:normal;font-weight:normal;font-stretch:normal;font-size:medium;line-height:normal;font-family:sans-serif;font-variant-ligatures:normal;font-variant-position:normal;font-variant-caps:normal;font-variant-numeric:normal;font-variant-alternates:normal;font-variant-east-asian:normal;font-feature-settings:normal;font-variation-settings:normal;text-indent:0;text-align:start;text-decoration:none;text-decoration-line:none;text-decoration-style:solid;text-decoration-color:#000000;letter-spacing:normal;word-spacing:normal;text-transform:none;writing-mode:lr-tb;direction:ltr;text-orientation:mixed;dominant-baseline:auto;baseline-shift:baseline;text-anchor:start;white-space:normal;shape-padding:0;shape-margin:0;inline-size:0;clip-rule:nonzero;display:inline;overflow:visible;visibility:visible;isolation:auto;mix-blend-mode:normal;color-interpolation:sRGB;color-interpolation-filters:linearRGB;solid-color:#000000;solid-opacity:1;vector-effect:none;fill:#4d81b4;fill-opacity:1;fill-rule:nonzero;stroke:none;stroke-width:0.258315;stroke-linecap:butt;stroke-linejoin:bevel;stroke-miterlimit:4;stroke-dasharray:none;stroke-dashoffset:0;stroke-opacity:1;color-rendering:auto;image-rendering:auto;shape-rendering:auto;text-rendering:auto;enable-background:accumulate;stop-color:#000000;stop-opacity:1"
               d="M 2.0927679,0.87304688 1.9788718,1.1031033 V 4.870057 L 2.1637591,5.0839842 H 6.2128906 L 6.3417969,4.9550781 V 1.0039062 L 6.2128906,0.87304688 Z M 2.1347656,1.1328125 H 6.0839844 V 4.8261719 H 2.1347656 Z"
               id="path969"
               sodipodi:nodetypes="cccccccccccccc" />
          </g>
          <rect
             style="fill:#4b7eb0;fill-opacity:0;stroke:none;stroke-width:0.15751;stroke-miterlimit:4;stroke-dasharray:none;stroke-opacity:0.827451"
             id="rect840"
             width="4.7433305"
             height="3.2328842"
             x="0.93106002"
             y="0.1540118" />
          <path
             id="rect881-5-7"
             style="fill:url(#linearGradient874-3-9);fill-opacity:1;stroke:#4d81b4;stroke-width:0.264009;stroke-linejoin:bevel;stroke-miterlimit:4;stroke-dasharray:none;stroke-dashoffset:0;stroke-opacity:1"
             d="M 0.64978242,1.6987696 H 3.1066985 V 2.4878992 H 0.64978242 Z" />
          <path
             id="rect881-5-7-6"
             style="fill:url(#linearGradient874-3-9-0);fill-opacity:1;stroke:#4d81b4;stroke-width:0.264009;stroke-linejoin:bevel;stroke-miterlimit:4;stroke-dasharray:none;stroke-dashoffset:0;stroke-opacity:1"
             d="M 0.65512601,3.199901 H 3.1120422 V 3.9890306 H 0.65512601 Z" />
        </g>
        <g
           id="g854"
           transform="translate(-0.07652815,0.04256905)">
          <path
             style="fill:none;stroke:#4d81b4;stroke-width:0.396875;stroke-linecap:round;stroke-linejoin:round;stroke-miterlimit:4;stroke-dasharray:none;stroke-opacity:1"
             d="M 3.3838964,1.4971998 4.3593402,2.1096665"
             id="path891-3-3"
             sodipodi:nodetypes="cc" />
          <path
             style="fill:none;stroke:#4d81b4;stroke-width:0.396875;stroke-linecap:round;stroke-linejoin:miter;stroke-miterlimit:3.9;stroke-dasharray:1.19062, 1.19062;stroke-dashoffset:0.714375;stroke-opacity:1"
             d="M 4.2014169,2.1759461 0.80436411,5.5233063"
             id="path891"
             sodipodi:nodetypes="cc" />
          <path
             style="fill:none;stroke:#4d81b4;stroke-width:0.396875;stroke-linecap:round;stroke-linejoin:round;stroke-miterlimit:4;stroke-dasharray:none;stroke-opacity:1"
             d="M 4.8680095,3.0432933 4.3593402,2.1096665"
             id="path891-3"
             sodipodi:nodetypes="cc" />
          <path
             style="fill:none;stroke:#4d81b4;stroke-width:0.396875;stroke-linecap:round;stroke-linejoin:round;stroke-miterlimit:4;stroke-dasharray:none;stroke-opacity:1"
             d="M 5.966288,0.50919868 3.3838964,1.4971998"
             id="path891-3-6"
             sodipodi:nodetypes="cc" />
          <path
             style="fill:none;stroke:#4d81b4;stroke-width:0.396875;stroke-linecap:round;stroke-linejoin:round;stroke-miterlimit:4;stroke-dasharray:none;stroke-opacity:1"
             d="M 5.9662868,0.50919969 4.8655927,3.0456061"
             id="path891-3-6-7"
             sodipodi:nodetypes="cc" />
        </g>
      </g>
    </g>
  </g>
</svg>

<svg xmlns="http://www.w3.org/2000/svg" xmlns:xlink="http://www.w3.org/1999/xlink" width="16" height="16">
    <defs>
        <linearGradient id="b">
            <stop offset="0" style="stop-color:#5d9bd4;stop-opacity:1"/>
            <stop offset="1" style="stop-color:#fdfeff;stop-opacity:1"/>
        </linearGradient>
        <linearGradient id="a">
            <stop offset="0" style="stop-color:#cae2f9;stop-opacity:1"/>
            <stop offset="1" style="stop-color:#fdfeff;stop-opacity:1"/>
        </linearGradient>
        <linearGradient xlink:href="#a" id="c" x1="144.286" x2="23.46" y1="144.286" y2="3.881" gradientTransform="matrix(.03482 0 0 .02815 1.188 .894)" gradientUnits="userSpaceOnUse"/>
        <linearGradient xlink:href="#b" id="d" x1="144.286" x2="23.46" y1="144.286" y2="3.881" gradientTransform="matrix(.02033 0 0 .00562 .173 1.677)" gradientUnits="userSpaceOnUse"/>
        <linearGradient xlink:href="#b" id="e" x1="144.286" x2="23.46" y1="144.286" y2="3.881" gradientTransform="matrix(.02033 0 0 .00562 .178 3.178)" gradientUnits="userSpaceOnUse"/>
    </defs>
    <path d="M2.005 1.003h4.208v3.952H2.005Z" style="color:#000;font-style:normal;font-variant:normal;font-weight:400;font-stretch:normal;font-size:medium;line-height:normal;font-family:sans-serif;font-variant-ligatures:normal;font-variant-position:normal;font-variant-caps:normal;font-variant-numeric:normal;font-variant-alternates:normal;font-variant-east-asian:normal;font-feature-settings:normal;font-variation-settings:normal;text-indent:0;text-align:start;text-decoration:none;text-decoration-line:none;text-decoration-style:solid;text-decoration-color:#000;letter-spacing:normal;word-spacing:normal;text-transform:none;writing-mode:lr-tb;direction:ltr;text-orientation:mixed;dominant-baseline:auto;baseline-shift:baseline;text-anchor:start;white-space:normal;shape-padding:0;shape-margin:0;inline-size:0;clip-rule:nonzero;display:inline;overflow:visible;visibility:visible;isolation:auto;mix-blend-mode:normal;color-interpolation:sRGB;color-interpolation-filters:linearRGB;solid-color:#000;solid-opacity:1;vector-effect:none;fill:url(#c);fill-opacity:1;fill-rule:nonzero;stroke:#4d81b4;stroke-width:.62841289;stroke-linecap:butt;stroke-linejoin:bevel;stroke-miterlimit:4;stroke-dasharray:none;stroke-dashoffset:0;stroke-opacity:1;color-rendering:auto;image-rendering:auto;shape-rendering:auto;text-rendering:auto;stop-color:#000;stop-opacity:1" transform="matrix(1.09746 0 0 1.47673 -.106 -.463)"/>
    <path fill="none" d="M.931.154h4.743v3.233H.931z" style="fill:#4b7eb0;fill-opacity:0;stroke:none;stroke-width:.15751;stroke-miterlimit:4;stroke-dasharray:none;stroke-opacity:.827451" transform="matrix(1.09746 0 0 1.47673 -.106 -.463)"/>
    <path d="M.65 1.699h2.457v.789H.65Z" style="fill:url(#d);fill-opacity:1;stroke:#4d81b4;stroke-width:.31420645;stroke-linejoin:bevel;stroke-miterlimit:4;stroke-dasharray:none;stroke-dashoffset:0;stroke-opacity:1" transform="matrix(1.09746 0 0 1.47673 -.106 -.463)"/>
    <path d="M.655 3.2h2.457v.789H.655Z" style="fill:url(#e);fill-opacity:1;stroke:#4d81b4;stroke-width:.31420645;stroke-linejoin:bevel;stroke-miterlimit:4;stroke-dasharray:none;stroke-dashoffset:0;stroke-opacity:1" transform="matrix(1.09746 0 0 1.47673 -.106 -.463)"/>
    <path d="m3.384 1.497.975.613" style="fill:none;stroke:#4d81b4;stroke-width:.396875;stroke-linecap:round;stroke-linejoin:round;stroke-miterlimit:4;stroke-dasharray:none;stroke-opacity:1" transform="translate(.26 .796)scale(2.4111)"/>
    <path d="M4.201 2.176.804 5.523" style="fill:none;stroke:#4d81b4;stroke-width:.396875;stroke-linecap:round;stroke-linejoin:miter;stroke-miterlimit:3.9;stroke-dasharray:1.19062,1.19062;stroke-dashoffset:.714375;stroke-opacity:1" transform="translate(.26 .796)scale(2.4111)"/>
    <path d="m4.868 3.043-.509-.933M5.966.51l-2.582.987M5.966.51l-1.1 2.536" style="fill:none;stroke:#4d81b4;stroke-width:.39691427;stroke-linecap:round;stroke-linejoin:round;stroke-miterlimit:4;stroke-dasharray:none;stroke-opacity:1" transform="translate(.26 .796)scale(2.4111)"/>
</svg>
